arkscan/icons/latoken.svg

<svg viewBox="0 0 18 18" fill="none" xmlns="http://www.w3.org/2000/svg">
  <path
    d="M9 18C8.39079 18.0002 7.78312 17.9389 7.1862 17.8172C6.60716 17.6985 6.0413 17.5229 5.49687 17.2928C4.96168 17.0661 4.4497 16.7882 3.96807 16.4629C3.49011 16.1398 3.04408 15.7718 2.63607 15.364C2.2282 14.9559 1.86021 14.5099 1.5371 14.032C1.21179 13.5504 0.933901 13.0384 0.707306 12.5032C0.477161 11.9587 0.30149 11.3929 0.182865 10.8138C0.061123 10.2169 -0.000141417 9.60922 2.45109e-07 9C-0.000140975 8.39078 0.0611235 7.7831 0.182865 7.18617C0.30149 6.60713 0.477161 6.04126 0.707306 5.49684C0.933888 4.96163 1.21178 4.44963 1.5371 3.96801C1.8602 3.49005 2.22819 3.04404 2.63607 2.63604C3.04408 2.22815 3.4901 1.86015 3.96807 1.53706C4.44969 1.21176 4.96167 0.933862 5.49687 0.707273C6.0413 0.477159 6.60716 0.3015 7.1862 0.182865C7.78312 0.061122 8.39079 -0.000142499 9 2.91024e-07C9.60922 -0.000154072 10.2169 0.0610995 10.8138 0.182832C11.3929 0.301457 11.9587 0.477116 12.5032 0.707241C13.0384 0.93383 13.5503 1.21172 14.032 1.53703C14.5099 1.86014 14.9559 2.22813 15.3639 2.63601C15.7718 3.04401 16.1398 3.49002 16.4629 3.96797C16.7882 4.4496 17.0661 4.9616 17.2927 5.4968C17.5228 6.04122 17.6985 6.6071 17.8171 7.18613C17.9389 7.78308 18.0001 8.39077 18 9C18.0002 9.60921 17.9389 10.2169 17.8172 10.8138C17.6985 11.3928 17.5229 11.9587 17.2928 12.5031C17.0662 13.0383 16.7883 13.5503 16.463 14.032C16.1398 14.5099 15.7719 14.9559 15.364 15.3639C14.956 15.7718 14.51 16.1398 14.032 16.4629C13.5504 16.7882 13.0384 17.0661 12.5032 17.2927C11.9588 17.5229 11.3929 17.6985 10.8139 17.8171C10.2169 17.9389 9.60924 18.0001 9 18ZM9.41384 11.5182H12.436L13.0522 13.2475H14.8723L11.822 4.80083H9.99195L7.61582 11.5182H5.78002L8.24403 4.80083H6.39928L3.36405 13.2475H8.82527L9.4139 11.5182H9.41384ZM11.8681 9.82989H10.0399L10.9184 7.29983L11.8681 9.82989Z"
    fill="#5A44E2" />
</svg>

<svg viewBox="0 0 18 18" fill="none" xmlns="http://www.w3.org/2000/svg"><path d="M9 18a8.962 8.962 0 0 1-6.364-2.636 9.073 9.073 0 0 1-1.929-2.86A8.955 8.955 0 0 1 0 9a8.954 8.954 0 0 1 2.636-6.364A9.062 9.062 0 0 1 5.496.707 8.957 8.957 0 0 1 9 0a8.956 8.956 0 0 1 6.364 2.636 9.063 9.063 0 0 1 1.929 2.86A8.955 8.955 0 0 1 18 9a8.962 8.962 0 0 1-2.636 6.364 9.06 9.06 0 0 1-2.86 1.929A8.948 8.948 0 0 1 9 18Zm.414-6.482h3.022l.616 1.73h1.82L11.822 4.8h-1.83l-2.376 6.717H5.78l2.464-6.717H6.399l-3.035 8.447h5.461l.589-1.73Zm2.454-1.688H10.04l.878-2.53.95 2.53Z" fill="#5A44E2"/></svg>
